!!!!SEGMENT: pl-sa--549-a-ix-29--019_anonim--cantabile.krn
!!!cenid: 18xx:473
!!!COM: Anonim
!!!COM-rismid: pe30004985
!!!CDT:
!!!CNT:
!!!OTL: Cantabile
!!!PDT:
!!!AGN: Secular
!!!SMS-siglum: PL-SA
!!!SMS-shelfmark: 549/A IX 29
!!!SMS-shelfwork: 019 W
!!!SMS-variant:
!!!SMS-altvar:
!!!NIFC-rismid: 1001068440
!!!URL-scan: http://bc.bdsandomierz.pl/dlibra/publication/1441/edition/1409/content
!!!ONB-nifc: Str. 13 (s. 6) – str. 14 (s. 2)
!!!key: A
**kern	**fing	**kern	**fing
*part1	*part1	*part1	*part1
*staff2	*staff2	*staff1	*staff1
*I"Piano	*	*I"Piano	*
*Ipiano	*	*Ipiano	*
*ICklav	*	*ICklav	*
*clefF4	*	*clefG2	*
*ok[c#f#b#]	*	*ok[c#f#g#]	*
*k[f#c#g#]	*	*k[f#c#g#]	*
*A:	*	*A:	*
*M3/8	*	*M3/8	*
=1	=1	=1	=1
!	!	!LO:TX:a:t=Śpiewnie, więc nie prędko	!
8A\L	.	4.cc#\	.
8c#\	.	.	.
8e\J	.	.	.
=2	=2	=2	=2
8G#\L	.	8b\L	.
8d\	.	8cc#\	.
8e\J	.	8b\J	.
=3	=3	=3	=3
8A\L	.	4a/	.
8c#\	.	.	.
8e\J	.	8a/	.
=4	=4	=4	=4
*rep	*	*	*
8A\L	.	8a\L	.
8c#\	.	8b\	.
8e\J	.	8cc#\J	.
*Xrep	*	*	*
=5	=5	=5	=5
8G#\L	.	4.dd\	.
8B\	.	.	.
8e\J	.	.	.
=6	=6	=6	=6
8A\L	.	8cc#\L	.
8c#\	.	8dd\	.
8e\J	.	8cc#\J	.
=7	=7	=7	=7
8E\L 8G#	.	4b\	.
8B\	.	.	.
8e\J	.	8b\	.
=8	=8	=8	=8
*rep	*	*	*
8E\L 8G#	.	8b\L	2
8B\	.	8cc#\	3
8e\J	.	8dd\J	1
*Xrep	*	*	*
=9	=9	=9	=9
16c#\LL	.	4ee\	.
16B\	.	.	.
16c#\	.	.	.
16A\	.	.	.
16B\	.	8ee\	.
16c#\JJ	.	.	.
=10	=10	=10	=10
4d\	.	16ff#\LL	.
.	.	16ee#X\	.
.	.	16ff#\	.
.	.	16aa\	.
8d\	.	16gg#\	.
.	.	16ff#\JJ	.
=11	=11	=11	=11
16c#\LL	.	8ee\L	.
16B\	.	.	.
16c#\	.	8ee\	.
16A\	.	.	.
16B\	.	8ee\J	.
16c#\JJ	.	.	.
=12	=12	=12	=12
8d\L	.	16ff#\LL	.
.	.	16ee#X\	.
8d\	.	16ff#\	.
.	.	16aa\	.
8d\J	.	16gg#\	.
.	.	16ff#\JJ	.
!!LO:PB:g=original
=13	=13	=13	=13
!	!	!LO:TX:a:t=P:problem:korekta.skreślone nuty i krzyżyk	!
4c#\	.	8ee\L	.
.	.	16aa\L	.
.	.	16gg#\	.
8A#X\	.	16ff#\	.
.	.	16ee\JJ	.
=14	=14	=14	=14
8B\L	1	8dd\L	.
8F#\	3	8ee\	.
8G#\J	2	8dd\J	.
=15	=15	=15	=15
8A\L	.	8cc#\L	3
8D\	.	8b\ 8dd	4 2
8D#X\J	.	8a\J 8cc#	1 3
=16	=16	=16	=16
4.E\	2	4a\ 4cc#	3 5
.	.	8g#\ 8b	2 4
=17||	=17||	=17||	=17||
8E\L	5	8.b\L	1
8G#\	3	.	.
.	.	16cc#\L	.
8B\J	1	16dd#X\	.
.	.	16ee\JJ	.
=18	=18	=18	=18
8F#\L	.	8ee\L	.
8A\	.	8dd#X\	.
8B\J	.	8dd#\J	.
=19	=19	=19	=19
8D#X\L	5	16ff#\LL	5
.	.	16a\JJ	1
8F#\	3	16r	.
.	.	16a\	.
8B\J	1	16r	.
.	.	16b\	.
=20	=20	=20	=20
4E\	4	16r	.
.	.	16a\LL	1
.	.	16g#\	2
.	.	16a\	1
8r	.	16b\	2
.	.	16cc#\JJ	3
=21	=21	=21	=21
8G#\L	4	4.dd\	4
8B\	2	.	.
8e\J	1	.	.
=22	=22	=22	=22
8A\L	4	8.cc#\L	.
8c#\	.	.	.
.	.	16dd\K	.
8e\J	.	8cc#\J	.
=23	=23	=23	=23
8E\L	5	4b\	.
8G#\	.	.	.
8B\J	.	8b\	.
=24	=24	=24	=24
8D\L	5	8b\L	2
8G#\	.	8cc#\	3
8B\J	.	8dd\J	1
=25	=25	=25	=25
8C#\L	5	4ee\	2
8E\	.	.	.
8A\J	.	8aa\	5
=26	=26	=26	=26
8D\L	4	16gg#\LL	4
.	.	16ff#\	3
8G#\	2	16ee\	2
.	.	16dd\	1
8B\J	1	16cc#\	3
.	.	16b\JJ	2
!!LO:LB:g=original
=27	=27	=27	=27
8E\L	5	[4.a\	.
8A\	2	.	.
8c#\J	1	.	.
=28	=28	=28	=28
8E\L	5	8a\L]	.
!	!	!LO:N:vis=8.	!
8G#\	3	8cc#\	.
8d\J	1	8b\Jk	.
=29	=29	=29	=29
!LO:TX:a:t=P:problem:mixed beam	!	!	!
8A\L 8c#	4 2	8a\	.
*	*below	*	*
8AA/	5	8c#/L 8a	2 5
8AA/J	.	8c#/J 8a	.
=30	=30	=30	=30
8AA/	.	4c#/ 4a	.
8r	.	.	.
8r	.	8r	.
==	==	==	==
*-	*-	*-	*-
!!!system-decoration: {(s1,s2)}
!!!ENC: Andrzej Kubiczek
!!!END: 2020-06-17
!!!ENC: Marta Chmielewska
!!!END: 2022-01-04
